src/assets/images/coffee.svg

<?xml version="1.0" encoding="UTF-8"?>
<svg viewBox="0 0 1116 292" xmlns="http://www.w3.org/2000/svg">
<path d="m835.58 0h-322.1c-9.112 0-16.498 7.3866-16.498 16.498v201.82c0 9.112 7.386 16.498 16.498 16.498h322.1c9.112 0 16.498-7.386 16.498-16.498v-201.82c0-9.1119-7.386-16.498-16.498-16.498z"/>
<path d="m482.13 217.46h384.72v0.396c0 5.346-2.124 10.473-5.904 14.253s-8.906 5.903-14.252 5.903h-344.41c-5.346 0-10.473-2.123-14.253-5.903s-5.903-8.907-5.903-14.253v-0.396z"/>
<path d="m841.55 9.3359h-335.04v198.3h335.04v-198.3z" fill="#fff"/>
<path d="m67 257h-32v35h32v-35z"/>
<path d="m1065 257h-31v35h31v-35z"/>
<path d="m1092.9 237.8h-1069.8c-12.269 0-22.214 4.156-22.214 9.282v2.548c0 5.126 9.9458 9.282 22.214 9.282h1069.8c12.26 0 22.21-4.156 22.21-9.282v-2.548c0-5.126-9.95-9.282-22.21-9.282z"/>
<path d="m923.75 163.6 0.279 59.456c0 19.976 57.272 19.308 56.546-0.549 0-1.178-0.28-59.456-0.28-59.456l-56.545 0.549z"/>
<path d="m978.9 173.5c3.377-0.765 6.82-0.765 10.197 0 2.498 0.336 4.809 2.008 6.454 4.67 0.994 2.381 1.524 5.088 1.536 7.849 0.586 5.187 0.211 10.499-1.089 15.423-1.573 4.344-4.228 7.725-7.46 9.497-3.191 1.734-6.619 2.432-10.029 2.041v-9.065c2.009 0.144 4.024-0.027 6.006-0.511 2.01-0.462 3.856-1.841 5.253-3.924 1.953-3.854 2.746-8.634 2.207-13.304 0.014-1.86-0.355-3.686-1.062-5.259-0.628-0.924-1.396-1.637-2.247-2.086-0.852-0.448-1.764-0.621-2.67-0.504-2.397 2e-3 -4.771 0.669-6.984 1.962"/>
</svg>

<svg width="1116" height="292" viewBox="0 0 1116 292" fill="none" xmlns="http://www.w3.org/2000/svg">
<path d="M835.576 0H513.476C504.364 0 496.978 7.38661 496.978 16.4985V218.319C496.978 227.431 504.364 234.817 513.476 234.817H835.576C844.688 234.817 852.074 227.431 852.074 218.319V16.4985C852.074 7.38661 844.688 0 835.576 0Z" fill="black"/>
<path d="M482.132 217.461H866.851V217.857C866.851 223.203 864.727 228.33 860.947 232.11C857.167 235.89 852.041 238.013 846.695 238.013H502.288C496.942 238.013 491.815 235.89 488.035 232.11C484.255 228.33 482.132 223.203 482.132 217.857V217.461Z" fill="black"/>
<path d="M841.554 9.33594H506.512V207.635H841.554V9.33594Z" fill="white"/>
<path d="M67 257H35V292H67V257Z" fill="black"/>
<path d="M1065 257H1034V292H1065V257Z" fill="black"/>
<path d="M1092.91 237.797H23.0934C10.8247 237.797 0.878906 241.953 0.878906 247.079V249.627C0.878906 254.753 10.8247 258.909 23.0934 258.909H1092.91C1105.17 258.909 1115.12 254.753 1115.12 249.627V247.079C1115.12 241.953 1105.17 237.797 1092.91 237.797Z" fill="black"/>
<path d="M923.752 163.604L924.031 223.06C924.031 243.036 981.303 242.368 980.577 222.511C980.577 221.333 980.297 163.055 980.297 163.055L923.752 163.604Z" fill="black"/>
<path d="M978.899 173.496C982.276 172.731 985.719 172.731 989.096 173.496C991.594 173.832 993.905 175.504 995.55 178.166C996.544 180.547 997.074 183.254 997.086 186.015C997.672 191.202 997.297 196.514 995.997 201.438C994.424 205.782 991.769 209.163 988.537 210.935C985.346 212.669 981.918 213.367 978.508 212.976C978.508 209.954 978.508 206.932 978.508 203.911C980.517 204.055 982.532 203.884 984.514 203.4C986.524 202.938 988.37 201.559 989.767 199.476C991.72 195.622 992.513 190.842 991.974 186.172C991.988 184.312 991.619 182.486 990.912 180.913C990.284 179.989 989.516 179.276 988.665 178.827C987.813 178.379 986.901 178.206 985.995 178.323C983.598 178.325 981.224 178.992 979.011 180.285" fill="black"/>
</svg>
